X: 1
T: Haughs of Cromdale
T: Siud mar chaidh an c\`al a' dhoaidh
T: That's how the cabbage was ruined
C: trad. Scotland
R: reel
N: Also played as a march or strathspey
S: Fiddle Hell Online 2021-11-3
Z: 2021 John Chambers <jc:trillian.mit.edu>
M: 4/4
L: 1/8
K: Amix
|: eAAA edBd | eAAB GABd | eAAA edBd | GBgB BAA2 :|
|: GBga geg2 | BGGB dBd2 | edeg abag | gGGB BAA2 :|
